X: 21534
T: Kilcoon
R: reel
M: 4/4
K: Gmajor
|:G,2B,D GBdB|c2ec dcBA|GEDE GABG|AcBG AGEG|
G,2B,D GBdB|cdef gfga|bgag edBA|1 GEDE GEDB,:|2 GEDE GABc||
|:dggg dgBg|dggb gabg|eaag a3g|eaag edBc|
dggg dgbg|agef gbga|bgag edBA|1 GEDE GABc:|2 GEDE GEDB,||

